; generated by PrusaSlicer 2.7.4+win64 on 2024-11-10 at 02:15:42 UTC


;
;
; 

; external perimeters extrusion width = 0.60mm
; perimeters extrusion width = 0.50mm
; infill extrusion width = 0.50mm
; solid infill extrusion width = 0.50mm
; top infill extrusion width = 0.45mm
; support material extrusion width = 0.38mm
; first layer extrusion width = 0.42mm

; external perimeters extrusion width = 0.60mm
; perimeters extrusion width = 0.50mm
; infill extrusion width = 0.50mm
; solid infill extrusion width = 0.50mm
; top infill extrusion width = 0.45mm
; support material extrusion width = 0.38mm
; first layer extrusion width = 0.42mm

M73 P0 R166
M73 Q0 S168
M201 X1000 Y1000 Z200 E5000 ; sets maximum accelerations, mm/sec^2
M203 X200 Y200 Z12 E120 ; sets maximum feedrates, mm / sec
M204 S1250 T1250 ; sets acceleration (S) and retract acceleration (R), mm/sec^2
M205 X8.00 Y8.00 Z0.40 E4.50 ; sets the jerk limits, mm/sec
M205 S0 T0 ; sets the minimum extruding and travel feed rate, mm/sec

; printing object PAIR_lid.stl id:1 copy 0
; stop printing object PAIR_lid.stl id:1 copy 0
; printing object PAIR_body.stl id:0 copy 0
; stop printing object PAIR_body.stl id:0 copy 0

;TYPE:Custom
M862.3 P "MK3S" ; printer model check
M862.1 P0.4 ; nozzle diameter check
M115 U3.14.0 ; tell printer latest fw version
G90 ; use absolute coordinates
M83 ; extruder relative mode
M104 S215 ; set extruder temp
M140 S60 ; set bed temp
M190 S60 ; wait for bed temp
M109 S215 ; wait for extruder temp
G28 W ; home all without mesh bed level
G80 X45.9384 Y62.5556 W152.049 H121.339 ; mesh bed levelling

G1 Z0.2 F720
G1 Y-3 F1000 ; go outside print area
G92 E0
G1 X60 E9 F1000 ; intro line
G1 X100 E12.5 F1000 ; intro line

G92 E0
M221 S95

; Don't change E values below. Excessive value can damage the printer.

M907 E538 ; set extruder motor current
G21 ; set units to millimeters
G90 ; use absolute coordinates
M83 ; use relative distances for extrusion

M900 K0.05 ; Filament gcode LA 1.5
M900 K30 ; Filament gcode LA 1.0




M107
;LAYER_CHANGE
;Z:0.2
;HEIGHT:0.2
G1 E-.8 F2100
G1 Z.6 F720
G1 X58.211 Y65.651 F10800
G1 Z.2 F720
G1 E.8 F2100
M204 S800
;TYPE:Skirt/Brim
;WIDTH:0.42
G1 F1200
G1 X58.625 Y65.333 E.01637
G1 X59.645 Y64.823 E.03576
G1 X60.244 Y64.663 E.01944
G1 X61.005 Y64.576 E.02402
G1 X131.479 Y62.745 E2.21041
G1 X193.732 Y62.764 E1.9519
M73 Q0 S167
G1 X194.25 Y62.833 E.01638
G1 X195.331 Y63.193 E.03572
G1 X195.869 Y63.503 E.01947
G1 X196.722 Y64.26 E.03576
G1 X197.04 Y64.674 E.01637
G1 X197.55 Y65.694 E.03576
G1 X197.71 Y66.293 E.01944
G1 X197.799 Y67.121 E.02611
G1 X197.799 Y166.837 E3.12653
G1 X197.71 Y167.665 E.02611
G1 X197.35 Y168.747 E.03575
G1 X196.722 Y169.699 E.03576
G1 X196.283 Y170.137 E.01944
G1 X195.331 Y170.766 E.03578
G1 X194.849 Y170.965 E.01635
G1 X193.732 Y171.194 E.03575
G1 X94.344 Y183.665 E3.14068
G1 X92.941 Y183.706 E.04401
G1 X90.996 Y183.394 E.06176
G1 X59.794 Y172.851 E1.03266
G1 X58.625 Y172.285 E.04072
G1 X57.772 Y171.529 E.03574
G1 X57.238 Y170.777 E.02892
G1 X46.94 Y151.263 E.69182
G1 X46.593 Y150.396 E.02928
G1 X46.323 Y149.438 E.03121
G1 X46.137 Y148.093 E.04257
G1 X46.127 Y147.284 E.02537
G1 X56.785 Y68.115 E2.50468
G1 X57.144 Y67.042 E.03548
G1 X57.454 Y66.504 E.01947
G1 X58.171 Y65.696 E.03387
M204 S1000
;WIPE_START
G1 F8640
G1 X58.211 Y65.651 E-.0139
G1 X58.625 Y65.333 E-.12054
G1 X59.645 Y64.823 E-.26332
G1 X60.244 Y64.663 E-.14316
G1 X61.005 Y64.576 E-.17686
G1 X61.361 Y64.567 E-.08222
;WIPE_END
G1 Z.6 F720
; printing object PAIR_body.stl id:0 copy 0
G1 X98.753 Y171.723 F10800
G1 Z.2 F720
G1 E.8 F2100
M204 S800
;TYPE:Support material
G1 F1200
G1 X99.261 Y172.758 E.03615
G1 X99.573 Y173.869 E.03618
G1 X99.678 Y175.017 E.03614
G1 X99.573 Y176.166 E.03618
G1 X99.261 Y177.277 E.03618
G1 X98.753 Y178.312 E.03615
G1 X98.076 Y179.223 E.03559
G1 X97.208 Y180.032 E.0372
G1 X96.247 Y180.643 E.03571
G1 X95.178 Y181.076 E.03616
G1 X94.048 Y181.307 E.03616
G1 X92.895 Y181.329 E.03616
G1 X91.757 Y181.142 E.03616
G1 X90.672 Y180.751 E.03616
G1 X89.676 Y180.17 E.03615
G1 X88.802 Y179.417 E.03617
G1 X88.079 Y178.519 E.03615
G1 X87.563 Y177.562 E.03409
G1 X87.19 Y176.425 E.03752
G1 X87.038 Y174.75 E.05273
G1 X87.19 Y173.61 E.03606
G1 X87.359 Y173.017 E.01933
G1 X87.563 Y172.473 E.01822
G1 X88.304 Y171.237 E.04518
G1 X98.392 Y171.237 E.3163
G1 X98.719 Y171.677 E.01719
M204 S1000
G1 X98.719 Y171.677 F10800
G1 X99.135 Y177.097
M204 S800
G1 F1200
G1 X99.135 Y173.566 E.11071
G1 X98.943 Y172.88 E.02234
G1 X98.716 Y172.419 E.01611
G1 X98.716 Y177.616 E.16295
G1 X98.297 Y178.356 E.02666
G1 X98.297 Y171.679 E.20935
G1 X98.221 Y171.577 E.00399
G1 X97.878 Y171.577 E.01075
G1 X97.878 Y178.92 E.23023
G1 X97.459 Y179.343 E.01867
G1 X97.459 Y171.577 E.2435
G1 X97.04 Y171.577 E.01314
G1 X97.04 Y179.725 E.25547
G1 X96.621 Y180.003 E.01577
G1 X96.621 Y171.577 E.26419
G1 X96.202 Y171.577 E.01314
G1 X96.202 Y180.27 E.27256
G1 X95.783 Y180.465 E.01449
G1 X95.783 Y171.577 E.27868
G1 X95.364 Y171.577 E.01314
G1 X95.364 Y180.634 E.28398
G1 X94.945 Y180.777 E.01388
G1 X94.945 Y171.577 E.28846
G1 X94.526 Y171.577 E.01314
G1 X94.526 Y180.863 E.29116
G1 X94.107 Y180.948 E.01341
G1 X94.107 Y171.577 E.29382
G1 X93.688 Y171.577 E.01314
G1 X93.688 Y180.974 E.29464
G1 X93.269 Y180.982 E.01314
G1 X93.269 Y171.577 E.29489
G1 X92.85 Y171.577 E.01314
G1 X92.85 Y180.978 E.29476
G1 X92.431 Y180.909 E.01331
G1 X92.431 Y171.577 E.2926
G1 X92.013 Y171.577 E.01311
G1 X92.013 Y180.84 E.29043
G1 X91.843 Y180.812 E.0054
G1 X91.594 Y180.722 E.0083
G1 X91.594 Y171.577 E.28674
G1 X91.175 Y171.577 E.01314
G1 X91.175 Y180.571 E.282
G1 X90.756 Y180.407 E.01411
G1 X90.756 Y171.577 E.27686
G1 X90.337 Y171.577 E.01314
G1 X90.337 Y180.162 E.26918
G1 X89.918 Y179.918 E.0152
G1 X89.918 Y171.577 E.26153
G1 X89.499 Y171.577 E.01314
G1 X89.499 Y179.569 E.25058
G1 X89.08 Y179.208 E.01734
G1 X89.08 Y171.577 E.23926
G1 X88.661 Y171.577 E.01314
G1 X88.661 Y178.7 E.22334
G1 X88.242 Y178.105 E.02282
G1 X88.242 Y171.93 E.19361
G1 X87.823 Y172.747 E.02879
G1 X87.823 Y177.288 E.14238
G1 X87.431 Y175.853 E.04664
G1 X87.404 Y173.479 E.07444
M204 S1000
;WIPE_START
G1 F8640
G1 X87.431 Y175.853 E-.5482
G1 X87.718 Y176.905 E-.2518
;WIPE_END
G1 Z.6 F720
G1 X55.01 Y141.27 F10800
G1 Z.2 F720
G1 E.8 F2100
M204 S800
G1 F1200
G1 X55.566 Y141.296 E.01745
G1 X56.659 Y141.523 E.035
G1 X57.724 Y141.956 E.03605
G1 X58.502 Y142.454 E.02896
G1 X58.502 Y152.698 E.32119
G1 X57.72 Y153.198 E.0291
G1 X56.654 Y153.631 E.03608
G1 X55.529 Y153.864 E.03602
G1 X54.38 Y153.889 E.03603
G1 X53.246 Y153.707 E.03601
G1 X52.164 Y153.322 E.03601
G1 X51.169 Y152.748 E.03602
G1 X50.294 Y152.004 E.03601
G1 X49.568 Y151.113 E.03604
G1 X49.042 Y150.154 E.03429
G1 X48.662 Y149.012 E.03774
G1 X48.504 Y147.872 E.03609
G1 X48.504 Y147.284 E.01844
G1 X48.661 Y146.142 E.03614
G1 X49.042 Y144.999 E.03778
G1 X49.569 Y144.039 E.03434
G1 X50.295 Y143.147 E.03606
G1 X51.171 Y142.403 E.03604
G1 X52.167 Y141.829 E.03604
G1 X53.25 Y141.445 E.03603
G1 X54.359 Y141.267 E.03522
G1 X54.953 Y141.269 E.01862
M204 S1000
G1 X54.953 Y141.269 F10800
G1 X58.075 Y152.77
M204 S800
G1 F1200
G1 X58.075 Y142.584 E.31937
G1 X57.656 Y142.316 E.01559
G1 X57.656 Y152.836 E.32985
G1 X57.237 Y153.028 E.01445
G1 X57.237 Y142.125 E.34186
G1 X56.818 Y141.954 E.01419
G1 X56.818 Y153.198 E.35255
G1 X56.555 Y153.305 E.0089
G1 X56.399 Y153.337 E.00499
G1 X56.399 Y141.815 E.36126
G1 X55.98 Y141.728 E.01342
G1 X55.98 Y153.424 E.36672
G1 X55.562 Y153.51 E.01338
G1 X55.562 Y141.641 E.37214
G1 X55.143 Y141.616 E.01316
G1 X55.143 Y153.533 E.37365
G1 X54.724 Y153.542 E.01314
G1 X54.724 Y141.608 E.37418
G1 X54.305 Y141.619 E.01314
G1 X54.305 Y153.533 E.37356
G1 X53.886 Y153.466 E.0133
M73 P0 R165
G1 X53.886 Y141.686 E.36935
G1 X53.467 Y141.754 E.01331
G1 X53.467 Y153.398 E.36509
G1 X53.048 Y153.276 E.01368
G1 X53.048 Y141.876 E.35744
G1 X52.629 Y142.025 E.01394
G1 X52.629 Y153.127 E.3481
G1 X52.21 Y152.957 E.01418
G1 X52.21 Y142.196 E.3374
G1 X51.791 Y142.437 E.01516
G1 X51.791 Y152.715 E.32226
G1 X51.372 Y152.473 E.01517
G1 X51.372 Y142.679 E.30708
G1 X50.953 Y143.034 E.01722
G1 X50.953 Y152.118 E.28482
G1 X50.534 Y151.76 E.01728
G1 X50.534 Y143.392 E.26237
G1 X50.115 Y143.906 E.02079
G1 X50.115 Y151.246 E.23014
G1 X49.696 Y150.64 E.0231
G1 X49.696 Y144.512 E.19214
G1 X49.277 Y145.338 E.02904
G1 X49.277 Y149.814 E.14034
G1 X48.893 Y148.389 E.04627
G1 X48.858 Y146.072 E.07266
M204 S1000
;WIPE_START
G1 F8640
G1 X48.893 Y148.389 E-.53506
G1 X49.191 Y149.497 E-.26494
;WIPE_END
G1 Z.6 F720
G1 X60.219 Y169.52 F10800
G1 Z.2 F720
G1 E.8 F2100
M204 S800
;TYPE:Perimeter
;WIDTH:0.419999
G1 F1200
G1 X60.028 Y169.27 E.00986
G1 X59.907 Y168.98 E.00985
G1 X59.859 Y168.616 E.01151
G1 X59.859 Y69.092 E3.1205
G1 X59.907 Y68.639 E.01428
M73 Q0 S166
G1 X60.028 Y68.348 E.00988
G1 X60.219 Y68.098 E.00986
G1 X60.469 Y67.907 E.00986
G1 X60.76 Y67.786 E.00988
G1 X61.124 Y67.738 E.01151
G1 X122.813 Y67.738 E1.93421
G1 X123.265 Y67.786 E.01425
G1 X123.556 Y67.907 E.00988
G1 X123.806 Y68.098 E.00986
G1 X123.997 Y68.348 E.00986
G1 X124.118 Y68.639 E.00988
G1 X124.166 Y69.092 E.01428
G1 X124.166 Y168.527 E3.11771
G1 X124.118 Y168.98 E.01428
G1 X123.997 Y169.27 E.00985
G1 X123.806 Y169.52 E.00986
G1 X123.556 Y169.712 E.00988
G1 X123.265 Y169.832 E.00987
G1 X122.901 Y169.88 E.01151
G1 X61.212 Y169.88 E1.93421
G1 X60.76 Y169.832 E.01425
G1 X60.469 Y169.712 E.00987
G1 X60.267 Y169.557 E.00798
M204 S1000
G1 X60.267 Y169.557 F10800
G1 X59.95 Y169.789
M204 S800
;TYPE:External perimeter
G1 F1200
G1 X59.698 Y169.461 E.01297
G1 X59.54 Y169.078 E.01299
G1 X59.482 Y168.641 E.01382
G1 X59.482 Y69.092 E3.12128
G1 X59.54 Y68.541 E.01737
G1 X59.698 Y68.158 E.01299
G1 X59.95 Y67.829 E.01299
G1 X60.279 Y67.577 E.01299
G1 X60.662 Y67.419 E.01299
G1 X61.099 Y67.361 E.01382
G1 X122.813 Y67.361 E1.935
G1 X123.363 Y67.419 E.01734
G1 X123.746 Y67.577 E.01299
G1 X124.075 Y67.829 E.01299
G1 X124.327 Y68.158 E.01299
G1 X124.485 Y68.541 E.01299
G1 X124.543 Y69.092 E.01737
G1 X124.543 Y168.527 E3.11771
G1 X124.485 Y169.078 E.01737
G1 X124.327 Y169.461 E.01299
G1 X124.075 Y169.789 E.01297
G1 X123.746 Y170.041 E.01299
G1 X123.363 Y170.2 E.013
G1 X122.926 Y170.257 E.01382
G1 X61.212 Y170.257 E1.935
G1 X60.662 Y170.2 E.01734
G1 X60.279 Y170.041 E.013
G1 X59.998 Y169.826 E.01109
M204 S1000
;WIPE_START
G1 F8640
G1 X59.95 Y169.789 E-.01399
G1 X59.698 Y169.461 E-.09551
G1 X59.54 Y169.078 E-.09567
G1 X59.482 Y168.641 E-.10179
G1 X59.482 Y166.506 E-.49304
;WIPE_END
G1 Z.6 F720
G1 X122.608 Y67.918 F10800
G1 Z.2 F720
G1 E.8 F2100
M204 S800
;TYPE:Solid infill
;WIDTH:0.420758
G1 F1200
G1 X123.826 Y69.136 E.05412
G1 X123.826 Y69.67 E.01678
G1 X122.244 Y68.088 E.07029
G1 X121.709 Y68.088 E.01681
G1 X123.826 Y70.205 E.09406
G1 X123.826 Y70.739 E.01678
G1 X121.175 Y68.087 E.11781
G1 X120.64 Y68.087 E.01681
G1 X123.826 Y71.273 E.14156
G1 X123.826 Y71.808 E.01681
G1 X120.106 Y68.087 E.1653
G1 X119.572 Y68.087 E.01678
G1 X123.826 Y72.342 E.18903
G1 X123.826 Y72.876 E.01678
G1 X119.037 Y68.087 E.21278
G1 X118.503 Y68.087 E.01678
G1 X123.826 Y73.411 E.23653
G1 X123.826 Y73.945 E.01678
M73 P1 R165
M73 Q1 S166
G1 X117.968 Y68.087 E.26028
G1 X117.434 Y68.087 E.01678
G1 X123.826 Y74.479 E.284
G1 X123.826 Y75.014 E.01681
G1 X116.899 Y68.087 E.30777
G1 X116.365 Y68.087 E.01678
G1 X123.826 Y75.548 E.3315
G1 X123.826 Y76.082 E.01678
G1 X115.831 Y68.087 E.35522
G1 X115.296 Y68.086 E.01681
G1 X123.826 Y76.617 E.37902
G1 X123.826 Y77.151 E.01678
G1 X114.762 Y68.086 E.40274
G1 X114.227 Y68.086 E.01681
G1 X123.826 Y77.685 E.42649
G1 X123.826 Y78.22 E.01681
G1 X113.693 Y68.086 E.45024
G1 X113.158 Y68.086 E.01681
G1 X123.826 Y78.754 E.47399
G1 X123.826 Y79.288 E.01678
G1 X112.624 Y68.086 E.49771
G1 X112.09 Y68.086 E.01678
G1 X123.826 Y79.823 E.52146
G1 X123.826 Y80.357 E.01678
G1 X111.555 Y68.086 E.54521
G1 X111.021 Y68.086 E.01678
G1 X123.826 Y80.891 E.56894
G1 X123.826 Y81.426 E.01681
G1 X110.486 Y68.086 E.59271
G1 X109.952 Y68.086 E.01678
G1 X123.826 Y81.96 E.61643
G1 X123.826 Y82.494 E.01678
G1 X109.417 Y68.086 E.64018
G1 X108.883 Y68.085 E.01678
G1 X123.826 Y83.029 E.66395
G1 X123.826 Y83.563 E.01678
G1 X108.349 Y68.085 E.68768
G1 X107.814 Y68.085 E.01681
G1 X123.826 Y84.097 E.71143
G1 X123.826 Y84.632 E.01681
G1 X107.28 Y68.085 E.73518
G1 X106.745 Y68.085 E.01681
M73 P1 R164
G1 X123.826 Y85.166 E.75892
G1 X123.826 Y85.701 E.01681
G1 X106.211 Y68.085 E.78267
G1 X105.676 Y68.085 E.01681
G1 X123.826 Y86.235 E.80642
G1 X123.826 Y86.769 E.01678
G1 X105.142 Y68.085 E.83015
G1 X104.608 Y68.085 E.01678
G1 X123.826 Y87.304 E.85389
G1 X123.826 Y87.838 E.01678
G1 X104.073 Y68.085 E.87764
G1 X103.539 Y68.085 E.01678
G1 X123.826 Y88.372 E.90137
G1 X123.826 Y88.907 E.01681
G1 X103.004 Y68.084 E.92516
G1 X102.47 Y68.084 E.01678
M73 Q1 S165
G1 X123.826 Y89.441 E.94889
G1 X123.826 Y89.975 E.01678
G1 X101.935 Y68.084 E.97264
G1 X101.401 Y68.084 E.01678
G1 X123.826 Y90.51 E.99638
G1 X123.826 Y91.044 E.01678
G1 X100.867 Y68.084 E1.02011
G1 X100.332 Y68.084 E.01681
G1 X123.826 Y91.578 E1.04386
G1 X123.826 Y92.113 E.01681
G1 X99.798 Y68.084 E1.06761
G1 X99.263 Y68.084 E.01681
G1 X123.826 Y92.647 E1.09136
G1 X123.826 Y93.181 E.01678
G1 X98.729 Y68.084 E1.11508
G1 X98.194 Y68.084 E.01681
G1 X123.826 Y93.716 E1.13885
G1 X123.826 Y94.25 E.01678
G1 X97.66 Y68.084 E1.16258
G1 X97.126 Y68.084 E.01678
G1 X123.826 Y94.784 E1.1863
G1 X123.826 Y95.319 E.01681
G1 X96.591 Y68.083 E1.2101
G1 X96.057 Y68.083 E.01678
G1 X123.826 Y95.853 E1.23382
G1 X123.826 Y96.387 E.01678
G1 X95.522 Y68.083 E1.25757
G1 X94.988 Y68.083 E.01678
G1 X123.826 Y96.922 E1.28132
G1 X123.826 Y97.456 E.01678
G1 X94.453 Y68.083 E1.30507
G1 X93.919 Y68.083 E.01678
G1 X123.826 Y97.99 E1.32879
G1 X123.826 Y98.525 E.01681
G1 X93.385 Y68.083 E1.35254
G1 X92.85 Y68.083 E.01681
G1 X123.826 Y99.059 E1.37629
G1 X123.826 Y99.593 E.01678
G1 X92.316 Y68.083 E1.40002
G1 X91.781 Y68.083 E.01681
G1 X123.826 Y100.128 E1.42379
G1 X123.826 Y100.662 E.01678
G1 X91.247 Y68.083 E1.44751
G1 X90.712 Y68.083 E.01681
G1 X123.826 Y101.196 E1.47126
G1 X123.826 Y101.731 E.01681
G1 X90.178 Y68.082 E1.49503
G1 X89.644 Y68.082 E.01678
G1 X123.826 Y102.265 E1.51876
G1 X123.826 Y102.8 E.01681
M73 P1 R163
G1 X89.109 Y68.082 E1.54253
G1 X88.575 Y68.082 E.01678
G1 X123.826 Y103.334 E1.56625
G1 X123.826 Y103.868 E.01678
G1 X88.04 Y68.082 E1.59
G1 X87.506 Y68.082 E.01678
G1 X123.826 Y104.403 E1.61375
G1 X123.826 Y104.937 E.01678
M73 Q1 S164
G1 X86.971 Y68.082 E1.6375
G1 X86.437 Y68.082 E.01678
G1 X123.826 Y105.471 E1.66123
G1 X123.826 Y106.006 E.01681
G1 X85.903 Y68.082 E1.68497
G1 X85.368 Y68.082 E.01681
G1 X123.826 Y106.54 E1.70872
G1 X123.826 Y107.074 E.01678
G1 X84.834 Y68.082 E1.73245
G1 X84.299 Y68.081 E.01681
M73 P2 R163
M73 Q2 S164
G1 X123.826 Y107.609 E1.75624
G1 X123.826 Y108.143 E.01678
G1 X83.765 Y68.081 E1.77997
G1 X83.23 Y68.081 E.01681
G1 X123.826 Y108.677 E1.80371
G1 X123.826 Y109.212 E.01681
G1 X82.696 Y68.081 E1.82746
G1 X82.162 Y68.081 E.01678
G1 X123.826 Y109.746 E1.85119
G1 X123.826 Y110.28 E.01678
G1 X81.627 Y68.081 E1.87494
G1 X81.093 Y68.081 E.01678
G1 X123.826 Y110.815 E1.89869
G1 X123.826 Y111.349 E.01678
G1 X80.558 Y68.081 E1.92243
G1 X80.024 Y68.081 E.01678
G1 X123.826 Y111.883 E1.94616
G1 X123.826 Y112.418 E.01681
G1 X79.489 Y68.081 E1.96993
G1 X78.955 Y68.081 E.01678
G1 X123.826 Y112.952 E1.99366
G1 X123.826 Y113.486 E.01678
G1 X78.421 Y68.081 E2.01738
G1 X77.886 Y68.08 E.01681
M73 P2 R162
G1 X123.826 Y114.021 E2.04118
G1 X123.826 Y114.555 E.01678
G1 X77.352 Y68.08 E2.0649
G1 X76.817 Y68.08 E.01681
G1 X123.826 Y115.089 E2.08865
G1 X123.826 Y115.624 E.01681
M73 Q2 S163
G1 X76.283 Y68.08 E2.1124
G1 X75.748 Y68.08 E.01681
G1 X123.826 Y116.158 E2.13615
G1 X123.826 Y116.692 E.01678
G1 X75.214 Y68.08 E2.15987
G1 X74.68 Y68.08 E.01678
G1 X123.826 Y117.227 E2.18362
G1 X123.826 Y117.761 E.01678
G1 X74.145 Y68.08 E2.20737
G1 X73.611 Y68.08 E.01678
G1 X123.826 Y118.295 E2.2311
G1 X123.826 Y118.83 E.01681
G1 X73.076 Y68.08 E2.25487
G1 X72.542 Y68.08 E.01678
G1 X123.826 Y119.364 E2.27859
G1 X123.826 Y119.899 E.01681
